X:1
T:Hallelujah Trombone
T:Hallelujah Trombone
T:No. 44 Chorus
%%score 1 2
L:1/8
M:4/4
K:D
V:1 bass nm="Trombone" snm="Tbn."
V:2 bass nm="Trombone" snm="Tbn."
V:1
 z8 | z8 | z8 | z8 | z8 | z8 | z8 | z8 | z8 | z8 | z8 | z8 | z8 | z4 z2 z!f! A,/A,/ | %14
 A,A, z A,/A,/ A,A, z A,/A,/ | A,A, z A,/A,/ A,A, z2 | z8 | z8 | z4 z2 z!f! A,/A,/ | %19
 B,A, z A,/A,/ B,A, z A,/A,/ | B,A, z A,/A,/ B,A,/F,/ D,D,/D,/ |"^B" D,2 z2 z4 | z8 | z8 | z8 | %25
 z8 | z8 | z8 |!f! D,4 E,2 F,2 | G,G,, G,3 G, F,2 | E,4 D,2 z2 | z4 z F,/F,/ F,F, | %32
 G,G,/G,/ G,G, F,2 z2 | z8 | z8 | z8 | z4 z2!f! A,2 | A,2 G,2 F,2 E,>D, | D,3 C, D,2 D,2 | %39
 E,3 A, G,2 G,2 |"^D" F,4 z4 | z8 | z8 | z8 | z8 | z8 | z8 | z8 | z8 | z8 |"^E" z8 | %51
 z2 z E, F,E, z E, | F,E, z E,/E,/ F,E, z E,/E,/ | F,E, z2 z4 | z2 z E, F,E, z E, | %55
 F,E, z E,/E,/ F,E, z E,/E,/ | F,E, z2 z4 | z2 z A, B,A, z A, | B,A, z A,/A,/ B,A, z A,/A,/ | %59
 B,A, z2 z4 | z2 z E, A,^G, z E, | A,^G, z E,/E,/ A,G, z E,/E,/ | A,^G, z z z4 | %63
 z2 z F, B,^A, z F, | B,^A, z F,/F,/ B,A, z F,/F,/ | B,2 B,2 z4 |"^F" z4!ff! B,2 B,2 | %67
 A,3 A, F,E,F,G, | E,4 z4 | z8 | z8 | z8 | z8 | z8 | z2 z A, B,A, z A, | B,A, z2 z4 | %76
 z2 z A,/A,/ B,A, z A,/A,/ | B,A, z2 z2 A,2 | F,2 F,2 B,2 D,2 | C,2 D,D, D,2 C,2 | %80
"^G" D,2 z2 A,2 A,2 | A,2 z A, A,2 A,2 | A,2 z2 A,2 A,2 | A,2 z A, A,2 A,2 | A,2 z2 z2 D,2 | %85
 D,2 D,2 B,2 D,2 | G,2 F,E, E,4 | F,2 z A, B,A, z A, | B,A, z A, B,A, z A, | %89
 B,A, z A,/A,/ B,A, z A,/A,/ | B,A, z A,/A,/ B,A, z A,/A,/ | B,A, z2 z2 F,2 | G,6 G,2 | F,8 |] %94
V:2
 z8 | z8 | z8 | z8 | z8 | z8 | z8 | z8 | z8 | z8 | z8 | z8 | z8 | z4 z2 z!f! E,/E,/ | %14
 D,C, z E,/E,/ D,C, z E,/E,/ | D,C, z E,/E,/ D,C, z2 | z8 | z8 | z4 z2 z!f! D,/D,/ | %19
 G,F, z D,/D,/ G,F, z D,/D,/ | G,F, z D,/D,/ G,F,/D,/ A,,A,,/A,,/ | A,,2 z2 z4 | z8 | z8 | %24
!f! A,,4 B,,2 C,2 | E,D, D,3 D, C,2 | B,,4 A,,2 z2 | z8 | D,4 E,2 F,2 | G,G,, G,3 G, F,2 | %30
 E,4 D,2 z2 | z4 z A,,/A,,/ A,,A,, | G,,G,,/G,,/ B,,B,, A,,2 z2 | z8 | z8 | z8 | z4 z2!f! F,2 | %37
 E,2 D,2 D,2 C,2 | A,,3 G,, A,,2 B,,2 | C,3 D, B,,2 C,2 | D,4 z4 | z8 | z8 | z8 | z8 | z8 | z8 | %47
 z8 | z8 | z8 | z8 | z2 z E, D,C, z E, | D,C, z E,/E,/ D,C, z E,/E,/ | D,C, z2 z4 | %54
 z2 z E, D,C, z E, | D,C, z E,/E,/ D,C, z E,/E,/ | D,C, z2 z4 | z2 z D, G,F, z D, | %58
 G,F, z D,/D,/ G,F, z D,/D,/ | G,F, z2 z4 | z2 z B,, C,B,, z B,, | %61
 C,B,, z B,,/B,,/ C,B,, z B,,/B,,/ | C,B,, z z z4 | z2 z C, D,C, z C, | %64
 D,C, z C,/C,/ D,C, z C,/C,/ | D,2 B,,2 z4 | z4!ff! B,,2 B,,2 | C,3 C, D,C,D,E, | C,4 z4 | z8 | %70
 z8 | z8 | z8 | z8 | z2 z D, G,F, z D, | G,F, z2 z4 | z2 z D,/D,/ G,F, z D,/D,/ | G,F, z2 z2 D,2 | %78
 D,2 D,2 B,,2 A,,2 | G,,2 A,,A,, A,,4 | A,,2 z2 A,,2 A,,2 | D,2 z A,, A,,2 A,,2 | %82
 D,2 z2 A,,2 A,,2 | D,2 z D, A,,2 A,,2 | A,,2 z2 z2 D,2 | B,,2 D,2 G,,2 A,,2 | C,2 D,D, D,2 C,2 | %87
 D,2 z D, G,F, z D, | G,F, z D, G,F, z D, | G,F, z D,/D,/ G,F, z D,/D,/ | %90
 G,F, z D,/D,/ G,F, z D,/D,/ | G,F, z2 z2 A,,2 | B,,6 B,,2 | A,,8 |] %94

